svgs/duotone/tooth.svg

<svg xmlns="http://www.w3.org/2000/svg" viewBox="0 0 448 512"><!--! Font Awesome Pro 6.3.0 by @fontawesome - https://fontawesome.com License - https://fontawesome.com/license (Commercial License) Copyright 2023 Fonticons, Inc. --><defs><style>.fa-secondary{opacity:.4}</style></defs><path class="fa-secondary" d="M394.1 212.8c-20.04 27.67-28.07 60.15-31.18 93.95c-3.748 41.34-8.785 82.46-17.89 122.8l-6.75 29.64c-2.68 12.14-13.29 20.78-25.39 20.78c-12 0-22.39-8.311-25.29-20.23l-29.57-121.2C254.1 322.6 240.1 311.4 224 311.4c-16.18 0-30.21 11.26-34.07 27.23l-29.57 121.2c-2.893 11.92-13.39 20.23-25.29 20.23c-12.21 0-22.71-8.639-25.5-20.78l-6.643-29.64c-9.105-40.36-14.14-81.48-17.1-122.8C81.93 272.1 73.9 240.5 53.86 212.8c-18.75-25.92-27.11-60.15-18.43-96.57c9.428-39.59 40.39-71.75 78.85-82.03c20.14-5.25 39.54-.4375 57.32 9.077l86.14 56.54c6.643 4.375 15.11 1.86 18.96-4.264c4.07-6.454 2.25-15.09-4.18-19.36l-24.21-15.86c3-1.531 6.215-2.735 9-4.813c22.39-16.84 48.75-28.65 76.39-21.33c38.46 10.28 69.43 42.43 78.85 82.03C421.2 152.7 412.9 187 394.1 212.8z"/></svg>

<svg xmlns="http://www.w3.org/2000/svg" viewBox="0 0 448 512"><!-- Font Awesome Pro 6.0.0-alpha2 by @fontawesome - https://fontawesome.com License - https://fontawesome.com/license (Commercial License) --><defs><style>.fa-secondary{opacity:.4}</style></defs><path d="M394.137 212.815C374.102 240.485 366.067 272.968 362.959 306.761C359.211 348.102 354.174 389.226 345.068 429.583L338.318 459.222C335.639 471.361 325.033 480.001 312.926 480.001C300.926 480.001 290.533 471.689 287.641 459.769L258.07 338.588C254.106 322.62 240.07 311.356 224 311.356C207.822 311.356 193.787 322.62 189.93 338.588L160.359 459.769C157.467 471.689 146.967 480.001 135.074 480.001C122.861 480.001 112.361 471.361 109.574 459.222L102.932 429.583C93.826 389.226 88.791 348.102 84.933 306.761C81.933 272.968 73.898 240.485 53.863 212.815C35.113 186.893 26.756 152.662 35.435 116.242C44.863 76.651 75.826 44.496 114.289 34.216C134.432 28.966 153.824 33.779 171.609 43.293L257.748 99.836C264.391 104.212 272.855 101.696 276.713 95.572C280.783 89.119 278.963 80.479 272.533 76.213L248.32 60.355C251.32 58.823 254.535 57.62 257.32 55.542C279.713 38.701 306.068 26.888 333.711 34.216C372.174 44.496 403.137 76.651 412.565 116.242C421.244 152.662 412.887 187.003 394.137 212.815Z" class="fa-secondary"/></svg>
